public/images/icon-menu.svg

<?xml version="1.0" encoding="UTF-8" standalone="no"?>
<svg width="21px" height="16px" viewBox="0 0 21 16" version="1.1" xmlns="http://www.w3.org/2000/svg" xmlns:xlink="http://www.w3.org/1999/xlink" xmlns:sketch="http://www.bohemiancoding.com/sketch/ns">
    <!-- Generator: Sketch 3.3.2 (12043) - http://www.bohemiancoding.com/sketch -->
    <title>Untitled 6</title>
    <desc>Created with Sketch.</desc>
    <defs></defs>
    <g id="Page-1" stroke="none" stroke-width="1" fill="none" fill-rule="evenodd" sketch:type="MSPage">
        <g id="Group-Copy-8" sketch:type="MSLayerGroup" fill="#444444">
            <path d="M19.95,2.14285714 L6.3,2.14285714 C5.67,2.14285714 5.25,1.71428571 5.25,1.07142857 C5.25,0.428571429 5.67,0 6.3,0 L19.95,0 C20.58,0 21,0.428571429 21,1.07142857 C21,1.71428571 20.58,2.14285714 19.95,2.14285714 L19.95,2.14285714 Z" id="Shape" sketch:type="MSShapeGroup"></path>
            <path d="M10.5,8.57142857 L6.3,8.57142857 C5.67,8.57142857 5.25,8.14285714 5.25,7.5 C5.25,6.85714286 5.67,6.42857143 6.3,6.42857143 L10.5,6.42857143 C11.13,6.42857143 11.55,6.85714286 11.55,7.5 C11.55,8.14285714 11.13,8.57142857 10.5,8.57142857 L10.5,8.57142857 Z" id="Shape" sketch:type="MSShapeGroup"></path>
            <path d="M19.95,15 L6.3,15 C5.67,15 5.25,14.5714286 5.25,13.9285714 C5.25,13.2857143 5.67,12.8571429 6.3,12.8571429 L19.95,12.8571429 C20.58,12.8571429 21,13.2857143 21,13.9285714 C21,14.5714286 20.58,15 19.95,15 L19.95,15 Z" id="Shape" sketch:type="MSShapeGroup"></path>
            <path d="M2.1,2.14285714 L1.05,2.14285714 C0.42,2.14285714 0,1.71428571 0,1.07142857 C0,0.428571429 0.42,0 1.05,0 L2.1,0 C2.73,0 3.15,0.428571429 3.15,1.07142857 C3.15,1.71428571 2.73,2.14285714 2.1,2.14285714 L2.1,2.14285714 Z" id="Shape" sketch:type="MSShapeGroup"></path>
            <path d="M2.1,8.57142857 L1.05,8.57142857 C0.42,8.57142857 0,8.14285714 0,7.5 C0,6.85714286 0.42,6.42857143 1.05,6.42857143 L2.1,6.42857143 C2.73,6.42857143 3.15,6.85714286 3.15,7.5 C3.15,8.14285714 2.73,8.57142857 2.1,8.57142857 L2.1,8.57142857 Z" id="Shape" sketch:type="MSShapeGroup"></path>
            <path d="M2.1,15 L1.05,15 C0.42,15 0,14.5714286 0,13.9285714 C0,13.2857143 0.42,12.8571429 1.05,12.8571429 L2.1,12.8571429 C2.73,12.8571429 3.15,13.2857143 3.15,13.9285714 C3.15,14.5714286 2.73,15 2.1,15 L2.1,15 Z" id="Shape" sketch:type="MSShapeGroup"></path>
        </g>
    </g>
</svg>

<?xml version="1.0" encoding="UTF-8" standalone="no"?>
<svg xmlns:sketch="http://www.bohemiancoding.com/sketch/ns" xmlns="http://www.w3.org/2000/svg" height="16px" width="21px" version="1.1" xmlns:xlink="http://www.w3.org/1999/xlink" viewBox="0 0 21 16"><!-- Generator: Sketch 3.3.2 (12043) - http://www.bohemiancoding.com/sketch -->
 <title>Untitled 6</title>
 <desc>Created with Sketch.</desc>
 <g id="Page-1" fill-rule="evenodd" sketch:type="MSPage" fill="none">
  <g id="Group-Copy-8" fill="#444" sketch:type="MSLayerGroup">
   <path id="Shape" sketch:type="MSShapeGroup" d="m19.95 2.1429h-13.65c-0.63 0-1.05-0.4286-1.05-1.0715 0-0.64283 0.42-1.0714 1.05-1.0714h13.65c0.63 0 1.05 0.42857 1.05 1.0714 0 0.6429-0.42 1.0715-1.05 1.0715z"/>
   <path id="Shape" sketch:type="MSShapeGroup" d="m10.5 8.5714h-4.2c-0.63 0-1.05-0.4285-1.05-1.0714s0.42-1.0714 1.05-1.0714h4.2c0.63 0 1.05 0.4285 1.05 1.0714s-0.42 1.0714-1.05 1.0714z"/>
   <path id="Shape" sketch:type="MSShapeGroup" d="m19.95 15h-13.65c-0.63 0-1.05-0.429-1.05-1.071 0-0.643 0.42-1.072 1.05-1.072h13.65c0.63 0 1.05 0.429 1.05 1.072 0 0.642-0.42 1.071-1.05 1.071z"/>
   <path id="Shape" sketch:type="MSShapeGroup" d="m2.1 2.1429h-1.05c-0.63 0-1.05-0.4286-1.05-1.0715 0-0.64283 0.42-1.0714 1.05-1.0714h1.05c0.63 0 1.05 0.42857 1.05 1.0714 0 0.6429-0.42 1.0715-1.05 1.0715z"/>
   <path id="Shape" sketch:type="MSShapeGroup" d="m2.1 8.5714h-1.05c-0.63 0-1.05-0.4285-1.05-1.0714s0.42-1.0714 1.05-1.0714h1.05c0.63 0 1.05 0.4285 1.05 1.0714s-0.42 1.0714-1.05 1.0714z"/>
   <path id="Shape" sketch:type="MSShapeGroup" d="m2.1 15h-1.05c-0.63 0-1.05-0.429-1.05-1.071 0-0.643 0.42-1.072 1.05-1.072h1.05c0.63 0 1.05 0.429 1.05 1.072 0 0.642-0.42 1.071-1.05 1.071z"/>
  </g>
 </g>
</svg>
